X:1
T:Crossing the Bar
T:Crossing the Bar
T:Joseph Barnby, 1893
T:Alfred Tennyson, 1889
T:Public Domain Courtesy of the Cyber Hymnal™
T:Public Domain Courtesy of the Cyber Hymnal™
C:Joseph Barnby, 1893
Z:Public Domain
Z:Courtesy of the Cyber Hymnal™
%%score ( 1 2 ) ( 3 4 )
L:1/8
Q:1/4=113
M:4/4
K:C
V:1 treble 
V:2 treble 
V:3 bass 
V:4 bass 
V:1
 [CE]2 [CE][CE] [B,G]3 [B,G] | C6 C3 | [A,F]2 [A,F]2 [CA]3 [CA] | [B,D]4- [B,D][B,D][B,E][B,F] | %4
w: Sun- set and even- ing|star, And|one clear call for|me! * And may there|
 [CG]2 [Cc]2 [Dc]2 [DB]2 | [DB]3 [CA] [CA]2 [CD]2 | [CF]3 [CF] [B,E]2 [B,D]2 | C4- C[CE][CE][CE] | %8
w: be no moan- ing|of the bar When|I put out to|sea. * But such a|
 [DE]2 [DE]2 [DE][DE][DF][DE] | [CE]6 [EA]2 | [Ec]3 [Ec] [^DB]2 [DA]2 | %11
w: tide as mov- ing seems a-|sleep, Too|full for sound and|
 ([E^G]4 [F=G])[FG][FA][FG] | ([Ee]3 [Fd]) [Gc]2 [^GB]2 | A3 G [DF]2 [A,D]2 | %14
w: foam. * When that which|drew * from the|bound- less deep Turns|
 ([CG]3 [G,C] [A,D]2) [B,E]2 | C8 | [CF]2 [CF][CF] [CE]3 [CE] x | [CD]6 [CD]2 | %18
w: a- * * gain|home.|Twi- light and even- ing|bell, And|
 [CG]3 [CG] [CF]2 [CF]2 | [CE]4- [CE][CE][CF][CG] | [CA]2 [CA]2 [^C_B]2 [CA]2 | %21
w: af- ter that the|dark! * And may there|be no sad- ness|
 [DG]3 [DF] [DF]2 [DG]2 | [CE]4 [D^F]4 | G6 [G,G]2 | [B,G]2 [CG]2 [DG]2 [EG]2 | %25
w: of fare- well When|I em-|bark. For,|though from out our|
 [FG]2 [FB]2 [FA]2 [FG]2 | [EG]2 [Ec]2 [EB]2 [EA]2 | [EG]4 [^D^F]4 | G6 G2 | %29
w: bourne of time and|place The flood may|bear me|far, I|
 [Af]2 [Ge]2 [Fd]2 [Gc]2 | [GB]2 [FA]2 [EG]2 [DF]2 | [CE]2 [^CG]2 [A,F]2 A,2 | [A,C]4 [B,D]4 | %33
w: hope to see my|Pi- lot face to|face When I have|crossed the|
 C8 |] %34
w: bar.|
V:2
 x8 | C6 C2 x | x8 | x8 | x8 | x8 | x8 | C4- C x3 | x8 | x8 | x8 | x8 | x8 | x3 F2 x3 | x8 | C8 | %16
 x9 | x8 | x8 | x8 | x8 | x8 | x8 | G6 x2 | x8 | x8 | x8 | x8 | (E4 F2) G2 | x8 | x8 | x8 | x8 | %33
 C8 |] %34
V:3
 [C,G,]2 [C,G,][C,G,] [G,,F,]3 [G,,F,] | [A,,E,]6 [A,,E,]2 x | [D,F,]2 [D,F,]2 [F,,D,]3 [F,,D,] | %3
 [G,,G,]4- [G,,G,]G,G,[F,G,] | [E,G,]2 [E,G,]2 [E,^G,]2 [E,G,]2 | [F,^G,]3 [F,A,] [F,A,]2 [F,A,]2 | %6
 [F,A,]3 [F,A,] [G,,G,]2 [G,,F,]2 | [C,E,]4- [C,E,][C,G,][C,G,][C,G,] | %8
 [B,,^G,]2 [B,,G,]2 [E,G,][E,G,][E,G,][E,G,] | A,6 [G,C]2 | [^F,A,]3 [F,A,] B,2 B,2 | %11
 ([E,B,-]4 [D,B,])[D,B,][G,B,][G,B,] | ([C,G,]3 [D,B,]) [E,C]2 [E,D]2 | %13
 [A,^C]2 [^C,A,]2 [D,A,]2 [F,,F,]2 | ([G,,E,]3 [G,,E,] [G,,F,]4) | [C,E,]8 | A,2 A,A, G,3 z x | %17
 F,6 [C,F,]2 | [C,_B,]3 [C,B,] [C,A,]2 [C,A,]2 | [C,G,]4- [C,G,][C,C][D,C][E,_B,] | %20
 [F,A,]2 [F,A,]2 [E,G,]2 [E,A,]2 | [D,_B,]3 [D,A,] [D,A,]2 [=B,,G,]2 | [C,G,]4 [A,,C]4 | %23
 [G,,B,]6 G,2 | [F,G,]2 [E,A,]2 [D,B,]2 [C,C]2 | [B,,D]2 [G,,B,]2 [A,,C]2 [B,,D]2 | %26
 [C,G,]2 [A,,A,]2 [B,,G,]2 [C,A,]2 | [B,,B,]4 [B,,B,]4 | (B,2 G,2 [D,A,]2) [D,B,]2 | %29
 [C,C]2 [C,G,]2 [D,B,]2 [E,C]2 | [F,C]2 [F,C]2 [^C,_B,]2 [D,A,]2 | %31
 [G,,G,]2 [A,,E,]2 [D,F,]2 [F,,F,]2 | [G,,E,]4 [G,,F,]4 | [C,E,]8 |] %34
V:4
 x8 | x9 | x8 | x5 G,G, x | x8 | x8 | x8 | x8 | x8 | A,6 x2 | x4 B,2 B,2 | x8 | x8 | x8 | x8 | x8 | %16
 C,4 (C,2 C,2) G, | (C,3 C, C,2) x2 | x8 | x8 | x8 | x8 | x8 | x6 G,2 | x8 | x8 | x8 | x8 | %28
 E,4 x4 | x8 | x8 | x8 | x8 | x8 |] %34

